X:751
T:Neil Gow's Lament for Abercairny
R:Slow Strathspey
C:Neil Gow
B:The Athole Collection
M:C
L:1/8
Q:1/4=140
K:G
B,|G,>B,D>G E>GD>G|A>B c/B/A/G/ ~E2 E>G|G,>B,D>G EG Dg/e/|
d>G d/c/B/A/ G2G||
B/c/|de/f/ ~g>d e>dg>B|ca/c/ Bg/B/ A2 A>B|G,>B,D>G E>G Dg/e/|
d>G d/c/B/A/ G2 G/A/B/c/|de/f/ ~g>d e>dg>B|ca/c/ Bg/B/ A2 AB/c/|
e/d/c/B/ d/c/B/A/ c/B/A/G/ B/A/G/F/|A/G/F/E/ D/E/D/B,/ G,2 G,/C/B,/A,/||

